apps/extension/src/ui/domains/Asset/currencyIcons/aud.svg

<svg width="32" height="33" viewBox="0 0 32 33" fill="none" xmlns="http://www.w3.org/2000/svg">
<g id="Australia_flag_icon_round 1" clip-path="url(#clip0_1014_4691)">
<path id="Vector" d="M32 16.5C32 25.3365 24.8365 32.5 16 32.5C7.1635 32.5 0 25.3365 0 16.5C0 16.5037 16 0.501812 16 0.5C24.8365 0.5 32 7.6635 32 16.5Z" fill="#0052B4"/>
<g id="Group">
<path id="Vector_2" d="M15.9999 0.5C15.999 0.5 15.998 0.500166 15.9971 0.500166L15.9999 0.5Z" fill="#F0F0F0"/>
<path id="Vector_3" d="M15.957 16.5H15.9998C15.9998 16.4855 15.9998 16.4716 15.9998 16.4572C15.9856 16.4715 15.9713 16.4857 15.957 16.5Z" fill="#F0F0F0"/>
<path id="Vector_4" d="M16 8.84806C16 6.03274 16 4.18793 16 0.500244H15.9973C7.162 0.501682 0 7.66449 0 16.5002H8.34781V11.7994L13.0486 16.5002H15.9572C15.9716 16.4859 15.9858 16.4717 16.0001 16.4574C16.0001 15.3794 16.0001 14.4176 16.0001 13.5489L11.2992 8.84806H16Z" fill="#F0F0F0"/>
</g>
<g id="Group_2">
<path id="Vector_5" d="M8.09466 2.58691C5.59223 4.01185 3.51185 6.09223 2.08691 8.59466V16.5H6.26085V6.76091L16 6.76085C16 5.44441 16 4.19029 16 2.58691H8.09466Z" fill="#D80027"/>
<path id="Vector_6" d="M15.9998 14.5324L10.3152 8.84793H8.34766L15.9997 16.5H15.9998C15.9998 16.5 15.9998 15.1434 15.9998 14.5324Z" fill="#D80027"/>
</g>
<g id="Group_3">
<path id="Vector_7" d="M9.64972 19.2827L10.5278 21.1188L12.5108 20.6605L11.6228 22.4919L13.2174 23.7565L11.232 24.204L11.2375 26.2392L9.64972 24.9659L8.06197 26.2392L8.06753 24.204L6.08203 23.7565L7.67672 22.4919L6.78859 20.6605L8.77166 21.1188L9.64972 19.2827Z" fill="#F0F0F0"/>
<path id="Vector_8" d="M23.9552 22.7609L24.3943 23.6789L25.3858 23.4497L24.9417 24.3654L25.7391 24.9977L24.7463 25.2215L24.7491 26.2391L23.9552 25.6024L23.1613 26.2391L23.1641 25.2215L22.1714 24.9977L22.9687 24.3654L22.5247 23.4497L23.5161 23.6789L23.9552 22.7609Z" fill="#F0F0F0"/>
<path id="Vector_9" d="M19.8708 13.0219L20.3098 13.94L21.3013 13.7107L20.8573 14.6264L21.6546 15.2587L20.6619 15.4825L20.6646 16.5001L19.8708 15.8634L19.0769 16.5001L19.0796 15.4825L18.0869 15.2587L18.8842 14.6264L18.4402 13.7107L19.4317 13.94L19.8708 13.0219Z" fill="#F0F0F0"/>
<path id="Vector_10" d="M23.9552 7.45654L24.3943 8.37467L25.3858 8.14548L24.9418 9.06117L25.739 9.69342L24.7463 9.91723L24.7491 10.9349L23.9552 10.2982L23.1613 10.9349L23.1641 9.91723L22.1714 9.69342L22.9686 9.06117L22.5247 8.14548L23.5161 8.37467L23.9552 7.45654Z" fill="#F0F0F0"/>
<path id="Vector_11" d="M27.5231 11.6305L27.9621 12.5486L28.9536 12.3194L28.5096 13.2351L29.3069 13.8674L28.3142 14.0912L28.3169 15.1087L27.5231 14.4721L26.7293 15.1087L26.7319 14.0912L25.7393 13.8674L26.5366 13.2351L26.0926 12.3194L27.084 12.5486L27.5231 11.6305Z" fill="#F0F0F0"/>
<path id="Vector_12" d="M24.9717 16.5L25.317 17.5629H26.4347L25.5305 18.2198L25.8759 19.2826L24.9717 18.6257L24.0676 19.2826L24.4129 18.2198L23.5088 17.5629H24.6264L24.9717 16.5Z" fill="#F0F0F0"/>
</g>
</g>
<defs>
<clipPath id="clip0_1014_4691">
<rect width="32" height="32" fill="white" transform="translate(0 0.5)"/>
</clipPath>
</defs>
</svg>

<svg viewBox="0 0 32 33" fill="none" xmlns="http://www.w3.org/2000/svg">
    <g clip-path="url(#clip0_1014_4691)">
        <path d="M32 16.5c0 8.837-7.163 16-16 16s-16-7.163-16-16c0 .004 16-15.998 16-16 8.837 0 16 7.163 16 16z" fill="#0052B4"/>
        <g fill="#F0F0F0">
            <path d="M16 .5h-.003H16z"/>
            <path d="M15.957 16.5H16v-.043l-.043.043z"/>
            <path d="M16 8.848V.5h-.003C7.162.502 0 7.664 0 16.5h8.348v-4.7l4.7 4.7h2.91l.042-.043V13.55l-4.7-4.7H16z"/>
        </g>
        <g fill="#D80027">
            <path d="M8.095 2.587a16.077 16.077 0 00-6.008 6.008V16.5H6.26V6.76H16V2.588H8.095z"/>
            <path d="M16 14.532l-5.685-5.684H8.348L16 16.5v-1.968z"/>
        </g>
        <g fill="#F0F0F0">
            <path d="M9.65 19.283l.878 1.836 1.983-.459-.888 1.832 1.594 1.264-1.985.448.006 2.035-1.588-1.273-1.588 1.273.006-2.035-1.986-.448 1.595-1.264-.888-1.832 1.983.459.878-1.836z"/>
            <path d="M23.955 22.76l.44.919.99-.23-.443.916.797.633-.993.223.003 1.018-.794-.637-.794.637.003-1.018-.993-.223.798-.633-.444-.915.991.229.44-.918z"/>
            <path d="M19.87 13.022l.44.918.991-.23-.444.916.798.633-.993.223.003 1.018-.794-.637-.794.637.003-1.018-.993-.223.797-.633-.444-.915.992.229.439-.918z"/>
            <path d="M23.955 7.457l.44.918.99-.23-.443.916.797.632-.993.224.003 1.018-.794-.637-.794.637.003-1.018-.993-.224.798-.632-.444-.916.991.23.44-.918z"/>
            <path d="M27.523 11.63l.44.919.99-.23-.443.916.797.632-.993.224.003 1.018-.794-.637-.794.637.003-1.018-.993-.224.798-.632-.444-.916.991.23.44-.918z"/>
            <path d="M24.972 16.5l.345 1.063h1.118l-.904.657.345 1.063-.904-.657-.904.657.345-1.063-.904-.657h1.117l.346-1.063z"/>
        </g>
    </g>
    <defs>
        <clipPath id="clip0_1014_4691">
            <path fill="#fff" transform="translate(0 .5)" d="M0 0h32v32H0z"/>
        </clipPath>
    </defs>
</svg>
